styles/images/svg/email.svg

<svg xmlns="http://www.w3.org/2000/svg" style="isolation:isolate" width="24" height="24"><defs><clipPath id="a"><path d="M0 0h24v24H0z"/></clipPath></defs><g clip-path="url(#a)"><mask id="b"><path d="M20 5.5H4c-.664.033-.987.389-1 1.038l9 7.166 9-7.076c-.039-.71-.362-1.076-1-1.128z" fill="#fff"/></mask><path d="M20 5.5H4c-.664.033-.987.389-1 1.038l9 7.166 9-7.076c-.039-.71-.362-1.076-1-1.128z" mask="url(#b)" vector-effect="non-scaling-stroke" stroke-width="2" stroke="#fff" fill="#fff" stroke-linejoin="round" stroke-linecap="round"/><mask id="c"><path d="M3 7.452V18c.011.501.071.525 1 .5h16c.946-.023.958-.011 1-.5V7.543l-8.775 6.906a.37.37 0 0 1-.225.079.365.365 0 0 1-.225-.079L3 7.452z" fill="#fff"/></mask><path d="M3 7.452V18c.011.501.071.525 1 .5h16c.946-.023.958-.011 1-.5V7.543l-8.775 6.906a.37.37 0 0 1-.225.079.365.365 0 0 1-.225-.079L3 7.452z" mask="url(#c)" vector-effect="non-scaling-stroke" stroke-width="2" stroke="#fff" fill="#fff" stroke-linejoin="round" stroke-linecap="round"/></g></svg>

<svg xmlns="http://www.w3.org/2000/svg" style="isolation:isolate" width="24" height="24"><path fill="currentColor" xmlns="http://www.w3.org/2000/svg" d=" M 20 5.5 L 4 5.5 C 3.336 5.533 3.013 5.889 3 6.538 L 12 13.704 L 21 6.628 C 20.961 5.918 20.638 5.552 20 5.5 Z  M 3 7.452 L 3 18 C 3.011 18.501 3.071 18.525 4 18.5 L 20 18.5 C 20.946 18.477 20.958 18.489 21 18 L 21 7.543 L 12.225 14.449 C 12.161 14.499 12.082 14.527 12 14.528 C 11.918 14.528 11.839 14.5 11.775 14.449 L 3 7.452 Z " fill-rule="evenodd"/></svg>
